img/general/quote-black.svg

<?xml version="1.0" encoding="UTF-8"?>
<svg viewBox="0 0 58 53" version="1.1" xmlns="http://www.w3.org/2000/svg" xmlns:xlink="http://www.w3.org/1999/xlink">
	<g>
			<path d="M18.4009756,0.990187589 C10.3402542,-2.64950977 -1.797118,4.22331819 0.223393518,13.7902492 C1.3577614,19.1604747 6.29507028,23.0464664 11.5692828,24.012111 C16.1338002,24.8483993 20.333848,22.8579943 23.4071996,19.7214929 C22.7716207,24.2039463 20.8904996,28.6972657 19.0512477,32.4007357 C15.9690542,38.6068614 11.5484782,45.2031257 5.67223418,49.111496 C3.47618431,50.5710228 5.53557432,54.1219818 7.75047831,52.64939 C20.6712717,44.058064 39.7388983,10.6249013 18.4009756,0.990187589 Z M22.6435427,13.9929505 C20.0466152,18.440219 15.7452753,21.0589073 10.5600022,19.566136 C6.12928405,18.2908125 2.85191789,13.4493954 4.88855293,9.10186055 C8.75325743,0.851000243 19.8661358,3.80549744 22.6699385,11.1164551 C22.7267609,12.0278994 22.7422343,12.9406372 22.7471753,13.8549273 C22.7132379,13.9025304 22.6748795,13.9396557 22.6435427,13.9929505 Z"></path>
			<path d="M48.4005914,0.990187589 C40.3400054,-2.64950977 28.2032272,4.22331819 30.2233147,13.7902492 C31.3570134,19.1604747 36.2951495,23.0464664 41.5694034,24.012111 C46.1338442,24.8483993 50.3338214,22.8579943 53.4067313,19.7214929 C52.770903,24.2039463 50.8911138,28.6972657 49.0509826,32.4007357 C45.9688409,38.6068614 41.5489893,45.2031257 35.6718038,49.111496 C33.4757908,50.5710228 35.5357963,54.1219818 37.750273,52.64939 C50.6712395,44.058064 69.7391958,10.6249013 48.4005914,0.990187589 Z M52.6439974,13.9929505 C50.0471136,18.440219 45.7454558,21.0589073 40.5603999,19.566136 C36.1300162,18.2908125 32.852445,13.4493954 34.8893059,9.10186055 C38.582831,1.21552621 48.8930007,3.56968096 52.2465072,10.1755176 C52.5706626,11.3983224 52.6796246,12.6380729 52.6948377,13.9255558 C52.6784543,13.9496161 52.6586904,13.9665618 52.6439974,13.9929505 Z"></path>
	</g>
</svg>

<svg xmlns="http://www.w3.org/2000/svg" viewBox="0 0 58 53"><path d="M18.401.99C10.341-2.65-1.797 4.223.223 13.79c1.135 5.37 6.072 9.256 11.346 10.222 4.565.836 8.765-1.154 11.838-4.29-.635 4.482-2.517 8.975-4.356 12.679-3.082 6.206-7.503 12.802-13.379 16.71-2.196 1.46-.136 5.011 2.078 3.538C20.671 44.06 39.74 10.625 18.401.99zm4.243 13.003c-2.597 4.447-6.899 7.066-12.084 5.573-4.43-1.275-7.708-6.117-5.671-10.464C8.753.85 19.866 3.805 22.669 11.116c.058.912.073 1.825.078 2.739-.034.048-.072.085-.103.138z"/><path d="M48.4.99c-8.06-3.64-20.197 3.233-18.177 12.8 1.134 5.37 6.072 9.256 11.346 10.222 4.565.836 8.765-1.154 11.838-4.29-.636 4.482-2.516 8.975-4.356 12.679-3.082 6.206-7.502 12.802-13.38 16.71-2.195 1.46-.135 5.011 2.08 3.538C50.67 44.06 69.738 10.625 48.4.99zm4.244 13.003c-2.597 4.447-6.899 7.066-12.084 5.573-4.43-1.275-7.708-6.117-5.67-10.464 3.693-7.886 14.003-5.532 17.357 1.074.324 1.222.433 2.462.448 3.75-.017.024-.036.04-.051.067z"/></svg>
